svgs/tg_monet.svg

<svg width="192" height="192" viewBox="0 0 192 192" fill="none" xmlns="http://www.w3.org/2000/svg">
<path d="M61.0479 92.6104L25.0455 81.7977C21.1154 80.6174 20.9443 75.1563 24.7929 73.7357L164.216 22.2733C167.373 21.1081 170.588 23.8463 169.908 27.1212L158.086 84.0592C132.655 78.139 104.548 89.9793 97.8556 120.238L81.9481 134.865C80.807 135.914 79.3099 136.204 77.9744 135.866M61.0479 92.6104L141.974 45.5335L84.9745 100.055L77.9744 135.866M61.0479 92.6104L68.0132 112.864L74.9784 133.117C75.4781 134.57 76.6464 135.529 77.9744 135.866" stroke="black" stroke-width="12" stroke-linejoin="round"/>
<path d="M112 127.5C112 143.792 125.585 157 142.344 157C143.368 157 144.38 156.951 145.378 156.854C151.953 156.22 152.964 146.828 146.895 143.267C165.607 144.284 174.205 131.06 171.518 119.362C167.885 107.027 156.199 98 142.344 98C125.585 98 112 111.208 112 127.5Z" stroke="black" stroke-width="8" stroke-linejoin="round"/>
<path d="M159.539 131.569C161.215 131.569 162.573 130.202 162.573 128.517C162.573 126.832 161.215 125.465 159.539 125.465C157.863 125.465 156.505 126.832 156.505 128.517C156.505 130.202 157.863 131.569 159.539 131.569Z" stroke="black" stroke-width="6"/>
<path d="M125.149 130.552C126.825 130.552 128.183 129.185 128.183 127.5C128.183 125.815 126.825 124.448 125.149 124.448C123.473 124.448 122.115 125.815 122.115 127.5C122.115 129.185 123.473 130.552 125.149 130.552Z" stroke="black" stroke-width="6"/>
<path d="M134.252 118.345C135.928 118.345 137.286 116.978 137.286 115.293C137.286 113.608 135.928 112.241 134.252 112.241C132.576 112.241 131.218 113.608 131.218 115.293C131.218 116.978 132.576 118.345 134.252 118.345Z" stroke="black" stroke-width="6"/>
<path d="M150.435 119.362C152.111 119.362 153.469 117.995 153.469 116.31C153.469 114.625 152.111 113.258 150.435 113.258C148.759 113.258 147.401 114.625 147.401 116.31C147.401 117.995 148.759 119.362 150.435 119.362Z" stroke="black" stroke-width="6"/>
</svg>

<svg xmlns="http://www.w3.org/2000/svg" width="192" height="192" fill="none" viewBox="0 0 192 192"><path stroke="#000" stroke-linejoin="round" stroke-width="12" d="M61.048 92.61 25.046 81.798c-3.93-1.18-4.102-6.642-.253-8.062l139.423-51.463c3.157-1.165 6.372 1.573 5.692 4.848L158.086 84.06c-25.431-5.92-53.538 5.92-60.23 36.179l-15.908 14.627a4.278 4.278 0 0 1-3.974 1.001M61.048 92.61l80.926-47.077-57 54.522-7 35.811M61.048 92.61l6.965 20.254 6.965 20.253a4.244 4.244 0 0 0 2.996 2.749"/><path stroke="#000" stroke-linejoin="round" stroke-width="8" d="M112 127.5c0 16.292 13.585 29.5 30.344 29.5 1.024 0 2.036-.049 3.034-.146 6.575-.634 7.586-10.026 1.517-13.587 18.712 1.017 27.31-12.207 24.623-23.905C167.885 107.027 156.199 98 142.344 98 125.585 98 112 111.208 112 127.5Z"/><path stroke="#000" stroke-width="6" d="M159.539 131.569a3.043 3.043 0 0 0 3.034-3.052 3.043 3.043 0 0 0-3.034-3.052 3.043 3.043 0 0 0-3.034 3.052 3.043 3.043 0 0 0 3.034 3.052Zm-34.39-1.017a3.043 3.043 0 0 0 3.034-3.052 3.043 3.043 0 0 0-3.034-3.052 3.043 3.043 0 0 0-3.034 3.052 3.043 3.043 0 0 0 3.034 3.052Zm9.103-12.207a3.043 3.043 0 0 0 3.034-3.052 3.043 3.043 0 0 0-3.034-3.052 3.043 3.043 0 0 0-3.034 3.052 3.043 3.043 0 0 0 3.034 3.052Zm16.183 1.017a3.043 3.043 0 0 0 3.034-3.052 3.043 3.043 0 0 0-3.034-3.052 3.043 3.043 0 0 0-3.034 3.052 3.043 3.043 0 0 0 3.034 3.052Z"/></svg>
